website/public/icons/interactive.svg

<svg width="48" height="48" viewBox="0 0 48 48" fill="none" xmlns="http://www.w3.org/2000/svg">
<circle cx="24" cy="24" r="24" fill="white"/>
<path d="M35.2057 16.0249C34.7103 16.0238 34.2196 16.1204 33.7616 16.3092C33.3037 16.498 32.8874 16.7753 32.5368 17.1252C32.1861 17.4751 31.9079 17.8907 31.7181 18.3482C31.5283 18.8058 31.4306 19.2963 31.4306 19.7916C31.4308 20.6802 31.7486 21.5395 32.3267 22.2143L28.701 26.1221C28.2955 25.9029 27.8426 25.7862 27.3818 25.7819C26.9878 25.7838 26.5983 25.8657 26.2368 26.0225L22.0884 21.5506C22.1814 21.3318 22.2375 21.0991 22.2543 20.8619C22.2707 20.5895 22.2332 20.3166 22.1441 20.0587C22.0549 19.8008 21.9159 19.5629 21.7348 19.3588C21.5538 19.1546 21.3343 18.9881 21.0889 18.8688C20.8435 18.7495 20.577 18.6796 20.3046 18.6632C20.0322 18.6469 19.7593 18.6844 19.5014 18.7735C19.2434 18.8627 19.0056 19.0017 18.8015 19.1828C18.5973 19.3638 18.4308 19.5833 18.3115 19.8287C18.1921 20.0741 18.1223 20.3406 18.1059 20.613C18.0836 20.929 18.1406 21.2456 18.2719 21.534L11.8585 28.3207C11.64 28.2268 11.4071 28.1707 11.1698 28.1548C10.7641 28.1326 10.3609 28.2311 10.0111 28.4378C9.66129 28.6444 9.38047 28.95 9.20406 29.316C9.02765 29.682 8.96355 30.0921 9.01985 30.4944C9.07614 30.8968 9.2503 31.2735 9.52038 31.5771C9.79046 31.8806 10.1444 32.0974 10.5375 32.2001C10.9306 32.3028 11.3453 32.2868 11.7293 32.1542C12.1134 32.0216 12.4496 31.7782 12.6955 31.4548C12.9414 31.1314 13.0861 30.7424 13.1113 30.3368C13.1311 30.0552 13.0915 29.7725 12.9951 29.5072L19.4749 22.6457C19.6553 22.7164 19.8457 22.7583 20.0391 22.7702C20.3201 22.7889 20.602 22.7523 20.8688 22.6623L25.0172 27.0845C24.724 27.5397 24.5685 28.0697 24.5691 28.6111C24.5691 29.3681 24.8698 30.094 25.4051 30.6293C25.9403 31.1645 26.6663 31.4652 27.4232 31.4652C28.1802 31.4652 28.9062 31.1645 29.4414 30.6293C29.9767 30.094 30.2774 29.3681 30.2774 28.6111C30.2753 28.1373 30.1525 27.6719 29.9206 27.2588L33.6873 23.2016C34.1991 23.4319 34.7558 23.545 35.3169 23.5325C35.8779 23.5201 36.4291 23.3824 36.9301 23.1296C37.4311 22.8768 37.8693 22.5153 38.2126 22.0714C38.556 21.6275 38.7958 21.1125 38.9146 20.5641C39.0334 20.0156 39.0282 19.4475 38.8992 18.9013C38.7703 18.3552 38.521 17.8447 38.1695 17.4073C37.818 16.9698 37.3732 16.6164 36.8675 16.373C36.3619 16.1295 35.8083 16.0021 35.2471 16L35.2057 16.0249Z" fill="black"/>
</svg>

<svg width="48" height="48" fill="none" xmlns="http://www.w3.org/2000/svg"><circle cx="24" cy="24" r="24" fill="#fff"/><path d="M35.206 16.025a3.767 3.767 0 0 0-3.775 3.767c0 .888.318 1.747.896 2.422L28.7 26.122a2.83 2.83 0 0 0-1.32-.34 2.913 2.913 0 0 0-1.144.24l-4.149-4.471c.093-.22.15-.452.166-.69a2.077 2.077 0 1 0-4.148-.248 1.9 1.9 0 0 0 .166.921l-6.413 6.787a2.1 2.1 0 0 0-.69-.166 2.057 2.057 0 1 0 1.942 2.182c.02-.282-.02-.564-.116-.83l6.48-6.861c.18.07.37.112.564.124a2.15 2.15 0 0 0 .83-.108l4.148 4.422a2.813 2.813 0 0 0-.448 1.527 2.854 2.854 0 1 0 5.708 0 2.788 2.788 0 0 0-.356-1.352l3.766-4.057A3.767 3.767 0 1 0 35.247 16l-.041.025Z" fill="#000"/></svg>
